_includes/icons/ios-bug.svg

<svg fill="#666" height="50" viewBox="0 0 50 50" width="50" xmlns="http://www.w3.org/2000/svg"><path d="m25 3c-2.921875 0-5.347656 2.097656-5.875 4.875-.695312.242188-1.367187.535156-2 .875-2.335937 1.253906-4.1875 3.378906-4.1875 6.25 0 1.59375.292969 3.050781.96875 4.25-.242187-.046875-.484375-.101562-.71875-.125-.148437-.011719-.285156-.035156-.4375-.03125-.457031.007813-.9375.117188-1.34375.40625-.542969.386719-.855469.988281-1.03125 1.65625-.019531.074219-.042969.171875-.0625.25-.371094-.050781-.84375-.15625-1.4375-.4375-.195312-.09375-.417969-.183594-.625-.3125s-.410156-.292969-.625-.46875c-.429687-.347656-.859375-.792969-1.28125-1.375-.210937-.292969-.429687-.605469-.625-.96875-.976562-1.8125-1.71875-4.589844-1.71875-8.84375 0-.03125 0-.0625 0-.09375s0-.0625 0-.09375c-.007812-.042969-.019531-.085937-.03125-.125-.015625-.054687-.039062-.105469-.0625-.15625-.035156-.066406-.078125-.128906-.125-.1875-.019531-.023437-.039062-.042969-.0625-.0625-.109375-.125-.25-.222656-.40625-.28125-.132812-.039062-.269531-.046875-.40625-.03125-.042969.007813-.085937.019531-.125.03125-.464844.105469-.792969.523438-.78125 1 0 7.1875 2.101563 10.910156 4.375 12.75 1.378906 1.113281 2.804688 1.488281 3.71875 1.625-.066406 1.082031-.09375 2.386719-.09375 4.09375 0 .167969.027344.332031.03125.5h-8.03125c-.03125 0-.0625 0-.09375 0-.570312.027344-1.011719.507813-.984375 1.078125.027344.570313.507813 1.011719 1.078125.984375h8.1875c.21875 1.792969.644531 3.574219 1.3125 5.25-.984375.226563-2.546875.699219-4.1875 1.65625-2.597656 1.515625-5.3125 4.378906-5.3125 9.0625-.003906.359375.183594.695313.496094.878906.3125.179688.695312.179688 1.007812 0 .3125-.183593.5-.519531.496094-.878906 0-3.941406 2.097656-6.054687 4.3125-7.34375 1.644531-.957031 3.292969-1.382812 4.03125-1.53125.433594.828125.917969 1.621094 1.46875 2.375 2.515625 3.429688 6.277344 5.96875 11.0625 6.5h.25c4.785156-.53125 8.546875-3.070312 11.0625-6.5.550781-.753906 1.035156-1.546875 1.46875-2.375.738281.148438 2.386719.574219 4.03125 1.53125 2.214844 1.289063 4.3125 3.402344 4.3125 7.34375-.003906.359375.183594.695313.496094.878906.3125.179688.695312.179688 1.007812 0 .3125-.183593.5-.519531.496094-.878906 0-4.683594-2.714844-7.546875-5.3125-9.0625-1.640625-.957031-3.203125-1.429687-4.1875-1.65625.667969-1.675781 1.09375-3.457031 1.3125-5.25h8.1875c.570313 0 1.03125-.460937 1.03125-1.03125 0-.570312-.460937-1.03125-1.03125-1.03125h-8.03125c.003906-.167969.03125-.332031.03125-.5 0-1.710937-.050781-3-.15625-4.0625.359375-.050781.820313-.152344 1.3125-.3125.253906-.082031.507813-.1875.78125-.3125.273438-.125.558594-.265625.84375-.4375s.558594-.363281.84375-.59375.570313-.488281.84375-.78125c.273438-.292969.554688-.609375.8125-.96875.257813-.359375.484375-.753906.71875-1.1875s.453125-.921875.65625-1.4375c.808594-2.058594 1.34375-4.78125 1.34375-8.375 0-.03125 0-.0625 0-.09375s0-.0625 0-.09375c-.011719-.074219-.035156-.148437-.0625-.21875-.019531-.023437-.039062-.042969-.0625-.0625-.023437-.066406-.054687-.128906-.09375-.1875-.019531-.023437-.039062-.042969-.0625-.0625-.03125-.023437-.0625-.042969-.09375-.0625-.199219-.175781-.457031-.265625-.71875-.25-.042969.007813-.085937.019531-.125.03125-.191406.042969-.363281.140625-.5.28125-.023437.03125-.042969.0625-.0625.09375-.046875.046875-.089844.101563-.125.15625-.011719.03125-.023437.0625-.03125.09375-.027344.058594-.046875.125-.0625.1875-.003906.042969-.003906.082031 0 .125v.0625c0 6.804688-1.898437 9.792969-3.625 11.1875-1.191406.964844-2.292969 1.191406-2.875 1.25-.207031-.601562-.53125-1.125-1.03125-1.46875-.53125-.367187-1.179687-.480469-1.78125-.46875-.261719.003906-.535156.058594-.8125.09375.832031-1.261719 1.1875-2.839844 1.1875-4.59375 0-2.871094-1.851562-4.996094-4.1875-6.25-.621094-.332031-1.285156-.605469-1.96875-.84375-.511719-2.800781-2.96875-4.90625-5.90625-4.90625zm0 2c1.597656 0 2.953125.9375 3.59375 2.28125-1.199219-.230469-2.414062-.34375-3.59375-.34375-1.191406 0-2.417969.109375-3.625.34375.640625-1.351562 2.023438-2.28125 3.625-2.28125zm0 4.0625c2.367188 0 4.96875.507813 6.875 1.53125 1.90625 1.023438 3.0625 2.394531 3.0625 4.40625 0 2.261719-.472656 3.542969-1.84375 4.46875s-3.929687 1.46875-8.09375 1.46875c-4.164062 0-6.722656-.542969-8.09375-1.46875s-1.84375-2.207031-1.84375-4.46875c0-2.011719 1.15625-3.382812 3.0625-4.40625 1.90625-1.023437 4.507813-1.53125 6.875-1.53125zm-12.34375 12.03125c.0625-.011719.171875-.015625.34375 0 .683594.0625 2.085938.539063 4.0625 1 .359375.082031.757813.167969 1.15625.25 1.761719.515625 3.96875.71875 6.78125.71875 2.410156 0 4.375-.164062 6-.53125.039063-.007812.085938.007813.125 0 .558594-.085937 1.078125-.1875 1.5625-.28125 1.9375-.375 3.335938-.734375 4.0625-.75.363281-.007812.484375.070313.5625.125.078125.054688.1875.140625.3125.53125.25.785156.375 2.511719.375 5.3125 0 3.863281-1.203125 7.796875-3.4375 10.84375-2.027344 2.761719-4.902344 4.796875-8.5625 5.5v-14.8125c.007813-.308594-.128906-.601562-.367187-.796875-.234375-.195312-.550782-.269531-.851563-.203125-.464844.105469-.792969.523438-.78125 1v14.8125c-3.660156-.703125-6.535156-2.738281-8.5625-5.5-2.234375-3.046875-3.4375-6.980469-3.4375-10.84375 0-3.074219.089844-4.933594.3125-5.78125.113281-.425781.230469-.546875.25-.5625.011719-.007812.03125-.019531.09375-.03125z"/></svg>

<svg xmlns="http://www.w3.org/2000/svg" viewBox="0 0 50 50" width="50" height="50" fill="#666"><path d="M 25 3 C 22.078125 3 19.652344 5.097656 19.125 7.875 C 18.429688 8.117188 17.757813 8.410156 17.125 8.75 C 14.789063 10.003906 12.9375 12.128906 12.9375 15 C 12.9375 16.59375 13.230469 18.050781 13.90625 19.25 C 13.664063 19.203125 13.421875 19.148438 13.1875 19.125 C 13.039063 19.113281 12.902344 19.089844 12.75 19.09375 C 12.292969 19.101563 11.8125 19.210938 11.40625 19.5 C 10.863281 19.886719 10.550781 20.488281 10.375 21.15625 C 10.355469 21.230469 10.332031 21.328125 10.3125 21.40625 C 9.941406 21.355469 9.46875 21.25 8.875 20.96875 C 8.679688 20.875 8.457031 20.785156 8.25 20.65625 C 8.042969 20.527344 7.839844 20.363281 7.625 20.1875 C 7.195313 19.839844 6.765625 19.394531 6.34375 18.8125 C 6.132813 18.519531 5.914063 18.207031 5.71875 17.84375 C 4.742188 16.03125 4 13.253906 4 9 C 4 8.96875 4 8.9375 4 8.90625 C 4 8.875 4 8.84375 4 8.8125 C 3.992188 8.769531 3.980469 8.726563 3.96875 8.6875 C 3.953125 8.632813 3.929688 8.582031 3.90625 8.53125 C 3.871094 8.464844 3.828125 8.402344 3.78125 8.34375 C 3.761719 8.320313 3.742188 8.300781 3.71875 8.28125 C 3.609375 8.15625 3.46875 8.058594 3.3125 8 C 3.179688 7.960938 3.042969 7.953125 2.90625 7.96875 C 2.863281 7.976563 2.820313 7.988281 2.78125 8 C 2.316406 8.105469 1.988281 8.523438 2 9 C 2 16.1875 4.101563 19.910156 6.375 21.75 C 7.753906 22.863281 9.179688 23.238281 10.09375 23.375 C 10.027344 24.457031 10 25.761719 10 27.46875 C 10 27.636719 10.027344 27.800781 10.03125 27.96875 L 2 27.96875 C 1.96875 27.96875 1.9375 27.96875 1.90625 27.96875 C 1.335938 27.996094 0.894531 28.476563 0.921875 29.046875 C 0.949219 29.617188 1.429688 30.058594 2 30.03125 L 10.1875 30.03125 C 10.40625 31.824219 10.832031 33.605469 11.5 35.28125 C 10.515625 35.507813 8.953125 35.980469 7.3125 36.9375 C 4.714844 38.453125 2 41.316406 2 46 C 1.996094 46.359375 2.183594 46.695313 2.496094 46.878906 C 2.808594 47.058594 3.191406 47.058594 3.503906 46.878906 C 3.816406 46.695313 4.003906 46.359375 4 46 C 4 42.058594 6.097656 39.945313 8.3125 38.65625 C 9.957031 37.699219 11.605469 37.273438 12.34375 37.125 C 12.777344 37.953125 13.261719 38.746094 13.8125 39.5 C 16.328125 42.929688 20.089844 45.46875 24.875 46 L 25.125 46 C 29.910156 45.46875 33.671875 42.929688 36.1875 39.5 C 36.738281 38.746094 37.222656 37.953125 37.65625 37.125 C 38.394531 37.273438 40.042969 37.699219 41.6875 38.65625 C 43.902344 39.945313 46 42.058594 46 46 C 45.996094 46.359375 46.183594 46.695313 46.496094 46.878906 C 46.808594 47.058594 47.191406 47.058594 47.503906 46.878906 C 47.816406 46.695313 48.003906 46.359375 48 46 C 48 41.316406 45.285156 38.453125 42.6875 36.9375 C 41.046875 35.980469 39.484375 35.507813 38.5 35.28125 C 39.167969 33.605469 39.59375 31.824219 39.8125 30.03125 L 48 30.03125 C 48.570313 30.03125 49.03125 29.570313 49.03125 29 C 49.03125 28.429688 48.570313 27.96875 48 27.96875 L 39.96875 27.96875 C 39.972656 27.800781 40 27.636719 40 27.46875 C 40 25.757813 39.949219 24.46875 39.84375 23.40625 C 40.203125 23.355469 40.664063 23.253906 41.15625 23.09375 C 41.410156 23.011719 41.664063 22.90625 41.9375 22.78125 C 42.210938 22.65625 42.496094 22.515625 42.78125 22.34375 C 43.066406 22.171875 43.339844 21.980469 43.625 21.75 C 43.910156 21.519531 44.195313 21.261719 44.46875 20.96875 C 44.742188 20.675781 45.023438 20.359375 45.28125 20 C 45.539063 19.640625 45.765625 19.246094 46 18.8125 C 46.234375 18.378906 46.453125 17.890625 46.65625 17.375 C 47.464844 15.316406 48 12.59375 48 9 C 48 8.96875 48 8.9375 48 8.90625 C 48 8.875 48 8.84375 48 8.8125 C 47.988281 8.738281 47.964844 8.664063 47.9375 8.59375 C 47.917969 8.570313 47.898438 8.550781 47.875 8.53125 C 47.851563 8.464844 47.820313 8.402344 47.78125 8.34375 C 47.761719 8.320313 47.742188 8.300781 47.71875 8.28125 C 47.6875 8.257813 47.65625 8.238281 47.625 8.21875 C 47.425781 8.042969 47.167969 7.953125 46.90625 7.96875 C 46.863281 7.976563 46.820313 7.988281 46.78125 8 C 46.589844 8.042969 46.417969 8.140625 46.28125 8.28125 C 46.257813 8.3125 46.238281 8.34375 46.21875 8.375 C 46.171875 8.421875 46.128906 8.476563 46.09375 8.53125 C 46.082031 8.5625 46.070313 8.59375 46.0625 8.625 C 46.035156 8.683594 46.015625 8.75 46 8.8125 C 45.996094 8.855469 45.996094 8.894531 46 8.9375 C 46 8.957031 46 8.980469 46 9 C 46 15.804688 44.101563 18.792969 42.375 20.1875 C 41.183594 21.152344 40.082031 21.378906 39.5 21.4375 C 39.292969 20.835938 38.96875 20.3125 38.46875 19.96875 C 37.9375 19.601563 37.289063 19.488281 36.6875 19.5 C 36.425781 19.503906 36.152344 19.558594 35.875 19.59375 C 36.707031 18.332031 37.0625 16.753906 37.0625 15 C 37.0625 12.128906 35.210938 10.003906 32.875 8.75 C 32.253906 8.417969 31.589844 8.144531 30.90625 7.90625 C 30.394531 5.105469 27.9375 3 25 3 Z M 25 5 C 26.597656 5 27.953125 5.9375 28.59375 7.28125 C 27.394531 7.050781 26.179688 6.9375 25 6.9375 C 23.808594 6.9375 22.582031 7.046875 21.375 7.28125 C 22.015625 5.929688 23.398438 5 25 5 Z M 25 9.0625 C 27.367188 9.0625 29.96875 9.570313 31.875 10.59375 C 33.78125 11.617188 34.9375 12.988281 34.9375 15 C 34.9375 17.261719 34.464844 18.542969 33.09375 19.46875 C 31.722656 20.394531 29.164063 20.9375 25 20.9375 C 20.835938 20.9375 18.277344 20.394531 16.90625 19.46875 C 15.535156 18.542969 15.0625 17.261719 15.0625 15 C 15.0625 12.988281 16.21875 11.617188 18.125 10.59375 C 20.03125 9.570313 22.632813 9.0625 25 9.0625 Z M 12.65625 21.09375 C 12.71875 21.082031 12.828125 21.078125 13 21.09375 C 13.683594 21.15625 15.085938 21.632813 17.0625 22.09375 C 17.421875 22.175781 17.820313 22.261719 18.21875 22.34375 C 19.980469 22.859375 22.1875 23.0625 25 23.0625 C 27.410156 23.0625 29.375 22.898438 31 22.53125 C 31.039063 22.523438 31.085938 22.539063 31.125 22.53125 C 31.683594 22.445313 32.203125 22.34375 32.6875 22.25 C 34.625 21.875 36.023438 21.515625 36.75 21.5 C 37.113281 21.492188 37.234375 21.570313 37.3125 21.625 C 37.390625 21.679688 37.5 21.765625 37.625 22.15625 C 37.875 22.941406 38 24.667969 38 27.46875 C 38 31.332031 36.796875 35.265625 34.5625 38.3125 C 32.535156 41.074219 29.660156 43.109375 26 43.8125 L 26 29 C 26.007813 28.691406 25.871094 28.398438 25.632813 28.203125 C 25.398438 28.007813 25.082031 27.933594 24.78125 28 C 24.316406 28.105469 23.988281 28.523438 24 29 L 24 43.8125 C 20.339844 43.109375 17.464844 41.074219 15.4375 38.3125 C 13.203125 35.265625 12 31.332031 12 27.46875 C 12 24.394531 12.089844 22.535156 12.3125 21.6875 C 12.425781 21.261719 12.542969 21.140625 12.5625 21.125 C 12.574219 21.117188 12.59375 21.105469 12.65625 21.09375 Z"/></svg>
